X:1
T:Door of Hope, 12.12.4
T:Door of Hope, 12.12.4
T:John Harrison Tenney (1840-1918)
T:Public Domain Courtesy of the Cyber Hymnal™
C:John Harrison Tenney (1840-1918)
Z:Public Domain
Z:Courtesy of the Cyber Hymnal™
%%score ( 1 2 ) ( 3 4 )
L:1/8
Q:1/4=115
M:4/4
K:C
V:1 treble 
V:2 treble 
V:3 bass 
V:4 bass 
V:1
 [CE]4 [CE]2 [CE]2 | [CE]4 z2 [CE]2 | [B,D]4 [CE]4 | D2 [^CE]2 [DF]2 [B,F]2 | [CE]6 [EG]2 | %5
 [EG]4 [E^G]4 | [EA]3!<(! [EA]!<)! [EB]2 [EB]2 | [Ec]8 | [Ac]4 [GB]2 [FA]2 | [EG]6 z2 | %10
!pp! [DG]4 [DF]2 [B,D]2 | [CE]8 |] %12
V:2
 x8 | x8 | x8 | D2 x6 | x8 | x8 | x8 | x8 | x8 | x8 | x8 | x8 |] %12
V:3
 [C,G,]4 [C,G,]2 [C,G,]2 | [C,G,]4 z2 [C,G,]2 | [G,,G,]4 [C,G,]4 | %3
 [F,A,]2 [E,A,]2 [D,A,]2 [G,,A,]2 | [C,G,]6 [C,C]2 | [C,C]4 [B,,D]4 | %6
 [A,,C]3 [C,A,] [E,^G,]2 [E,G,]2 | A,8 | [F,C]4 [F,C]2 [F,C]2 | [C,C]6 z2 | %10
 [G,B,]4 [G,B,]2 [G,,G,]2 | [C,G,]8 |] %12
V:4
 x8 | x8 | x8 | x8 | x8 | x8 | x8 | A,8 | x8 | x8 | x8 | x8 |] %12

